X: 4
T: Ben Hill
R: reel
M: 4/4
L: 1/8
K: Gmaj
~d3 B cBAB | G2 .B/.B/G DGBG | AAAB cBAG | EA .A/.A/A ABcA |~d3 B cBAB | GABG DGBG | AAAB cdeg | fdcA BGGB :|dg({a}g)f gedg | ea ~a2 ({b}a)geg | fd .d/.d/d bdad | gfge dcBc |dg({a}g)f gedg | ea ~a2 ({b}a)geg | (f/g/a) eg fdcA | GBAF DGGB |dg({a}g)f gedg | ea ~a2 ({b}a)geg | fd .d/.d/d bdad | gfge dcBc |~d3 (g {a}g)edg | ea ~a2 ({b}a)geg | (f/g/a) eg fdcA | GBAF DG G2 ||


Tune 6899	Setting 25470

